X:5047
T:Pay the Piper
O:england
R:Reel
N:1994
M:4/4
C:Andy Hornby
A:Lancaster
K:G
dB | \
G2GA BGGA | BGdG edBG | A2AB cAFA | cAeA cBAF | \
G2GA BGGA | BGdG edBG |
A2AB cAfe | dcAF G2 :: \
Bc| \
dggf gBBc | dggf g2AB | cAeA cBAB | cAfe dcBA |
Gggf gBBc | dggfg2 AB | cAfe dcAF | AGGF G2:|\
|:AG | \
FAAB cAAG | FAAB cAdc |
BGGF G2GA |  GBdB cBAG |\
FAAB cAAG | FAAB cAdc | B2dB cAFG | AGGF G2 ::
Bd | \
gdBd gdBd | gfed gdBd | fcAB cAfA | cBAB cdef |
gdBd gdBd | gfed gdBd | fcAB cAfe |dcBA G2 :|
W:Copyright (C) Andy Hornby
